X:107
T: Die verunglueckte Muellerstochter
N: Q0106D
O: Mitteleuropa, Deutschland (BRD) , Hessen, Nassau
R: Ballade, Unfall, Tod
M: 4/4
L: 1/8
K: G
d3c | B2B2B2c2 | e2d2
e3d | d2B2c2d2 | B4z2
d2 | g2fed2d2 | d2g2d2
Bc | edd2c2d2 | B4z2
d2 | g2fed2d2 | d2g2d2
Bc | edd2c2d2 | B4

